X:1
T:Gia fu chi m'hebbe
T:Anonymous
T:Source : Musica divina---Anversa---P.Phalesio & G.Bellero---1583. Editor : André Vierendeels (04/12/13).
T:Gia fu chi m'hebbe
C:Anonymous
%%score [ 1 2 [ 3 4 ] ]
L:1/8
Q:1/4=124
M:2/2
K:C
V:1 treble nm="Canto" snm="C"
V:2 treble nm="Alto" snm="A"
V:3 treble-8 nm="Tenor 1" snm="T 1"
V:4 treble-8 nm="Tenor 2" snm="T 2"
V:1
 A8 | A6 G2 | A4 B4 | c8 | G8 | z8 | z4 A4 | A6 G2 | A4 B4 | c4 G2 G2 | A2 B2 c4 | B2 B2 c2 d2 | %12
w: Gia|fu chi|m'heb- be|ca-|ra,||gia|fu- chi|m'heb- be|ca- ra e|vo- len- tie-|ri, e vo- len-|
 e8 | d8 | c6 c2 | c4 B4 | e6 c2 | d4 e2 e2 | d4 d2 d2 | c4 A4 | _B8 | A8 | z4 A4 | F4 G4 | A8 | %25
w: tie-|ri|gio- vi-|net- ta,|gio- vi-|net ta mi|pre- se ne|le sue|brac-|cia,|ne|le sue|brac-|
 A8 | z4 d4- | d4 f4 | e4 d4- | d4 c4 | d4 d4 | z4 B4- | B2 B2 B4 | c4 c4 | B4 d4- | d2 d2 d4 | %36
w: cia,|e|_ den-|tr'a suoi|_ pen-|sie- ri|e|_ de miei|oc- chi|si, e|_ de miei|
 e4 e4 | d4 c4- | c2 c2 c4 | d8- | d4 ^c4 | z4 d4 | c4 c4 | A2 B2 c4 | B2 c2 d4 | c2 d2 e4 | d8 | %47
w: oc- chi|si tut-|* to s'ac-|ce-|* se,|ch'el|tem- po|che leg- gie-|ri s'en vo-|la, s'en vo-|la,|
 z4 ^c4- | c4 ^c4 | d4 d4 | e2 f2 g2 f2 | e2 d2 c2 B2 | A2 G2 F2 G2 | A4 A4 | G6 F2 | E8 | D8 | %57
w: tut-|* t'in|vag- heg-|giar _ _ _|_ _ _ _||* mi|spes- *||se|
 z2 d2 f4 | e4 d4- | d4 c4 | d4 d4 | z8 | z8 | A8 | c8- | c4 B4 | c4 d4 | e8 | d6 d2 | e4 d4 | c8 | %71
w: et io|co- me|_ con-|te- se|||di|me|_ lo|fe- ci|de-|gno, lo|fe- ci|de-|
 B4 A4 | A4 B4 | c4 e4- | e4 d4- | d4 c4 | d8 | z8 | z4 d4- | d4 c4- | c4 _B4 | A6 G2 | F4 G4 | %83
w: gno, ma|hor ne|son do-|* len-|* te'a|me,||do-|* len-|* te'a|me _|_ pri-|
 A8 | A4 z2 A2 | A4 B4 | c4 e4- | e4 d4- | d4 c4 | d8 | z8 | z4 d4- | d4 c4- | c4 _B4 | A6 G2 | %95
w: va-|ta, ma|hor ne|son do-|* len-|* te'a|me,||do-|* len-|* te'a|me _|
 F4 G4 | A8- | A8 | A8 |] %99
w: _ pri-|va-||ta.|
V:2
 z8 | z8 | z8 | E8 | E6 D2 | E4 F4 | G4 F2 F2 | E6 E2 | F4 G4 | G4 E4 | z2 D2 E2 F2 | G4 F2 F2 | %12
w: |||Gia|fu chi|m'heb- be|ca- ra, giu|fu chi|m'heb- be|ca- ra|e vo- lon-|tie- ri, e|
 E2 F2 G4- | G4 G4 | G6 E2 | F4 G4 | E6 E2 | A4 G2 G2 | G4 G2 D2 | E4 F4 | G8 | D8 | z8 | z4 D4 | %24
w: vo- len- rie-|* ri|gio- vi-|net- ta,|gio- vi-|net- ta mi|pre- se ne|le sue|brac-|cia,||e|
 F4 E4 | D4 C4 | D8 | D4 A4 | c4 B4 | A4 A4 | ^F4 F4 | z4 G4- | G2 G2 G4 | A4 F4 | G4 B4- | %35
w: den- tr'a|suoi pen-|sie-|ri, e|den- tr'a|suoi pen-|sie- ri|e|_ de miei|oc- chi|si, e|
 B2 B2 B4 | c4 c4 | B4 G4- | G2 G2 A4 | F4 G4 | A8 | z4 A4 | A8 | E4 E2 F2 | G4 F2 G2 | A4 G2 A2 | %46
w: _ de miei|oc- chi|si tut-|* to s'ac-|ce- *|se,|ch'el|tem-|po che leg-|gie- ri s'en|vo- la, s'en|
 B4 A4 | z4 A4- | A4 A4 | A4 D4 | G8 | G4 A4- | A2 B2 c2 B2 | A2 G2 F2 E2 | D8 | A8 | F4 z2 A2 | %57
w: vo- la,|tut-|* t'in|vag- heg-|giar|mi spes-|||||se et|
 B4 A4 | G4 F4 | E8 | D8 | z8 | E8 | F8- | F4 E4 | F4 G4 | A8 | G4 C4 | G6 G2 | G4 G4 | G8 | %71
w: io co-|me con-|tre-|se||di|me|_ lo|fe- ci|de-|gno, di|me lo|fe- ci|de-|
 G4 E4 | ^F4 G4 | G8 | z8 | z8 | z4 _B4- | B4 A4- | A4 G4 | A4 E4- | E4 D4- | D4 C4 | D4 D4 | E8 | %84
w: gno, ma|hor ne|son|||do-|* len-|* t'a|me, do-|* len-|* t'a|me pri-|va-|
 D4 E4 | ^F4 G4 | G8 | z8 | z8 |"^b" z4 B4- | B4 A4- | A4 G4 | A4 E4- | E4 D4- | D4 C4 | D4 D4 | %96
w: ta, ma|hor ne|son|||do-|* len-|* t"a|me, do-|* len-|* t'a|me pri-|
 E8- | E8 | F8 |] %99
w: va-||ta.|
V:3
 d8 | f6 e2 | f4 d4 | c4 c4 | z8 | z8 | z4 d4 | c6 B2 | c4 d4 | e4 c4 | z8 | G4 A2 B2 | c8 | B8 | %14
w: Gia|fu chi|m'heb- be|ca- ra,|||gia|fu chi|m'heb- be|ca- ra||e vo- len-|tie-|ri|
 e6 e2 | c4 d4 | c6 c2 | A4 B2 c2 | B4 B4 | z8 | z4 g4 | f4 d4 | e8 | d8- | d4 c4 | f4 e4 | d4 f4 | %27
w: gio- vi-|net- ta,|gio- vi-|net- ta mi|pre- se||ne|le sue|brac-|cia|_ e|den- tr'a|suoi,- e|
 b4 a4 | g6 f2 | e8 | d8 | z4 d4- | d2 d2 d4 | f4 c4 | d4 g4- | g2 g2 g4 | c4 c4 | g4 e4- | %38
w: den- tr'a|suoi pen-|sie-|ri|e|_ de miei|oc- chi|si, e|_ de miei|oc- chi|si tut-|
 e2 e2 f4 | d8 | e8 | f8 | e8 | c8 | z4 d2 e2 | f4 e2 f2 | g4 ^f4 | g4 e4- | e4 e4 | f4 f4 | e8- | %51
w: * to s'ac-|ce-|se,|ch'el|tem-|po|che leg-|gie- ri s'en|vo- *|la, tut-|* t'in|vag- heg-|giar|
 e4 e4 | f2 g2 a2 g2 | f2 e2 d2 c2 | B2 c2 d4- |"^#" d4 c4 | d8- | d8 | z8 | z8 | z2 d2 f4 | %61
w: _ mi|spes _ _ _|_ _ _ _|||se|_|||et io|
 e4 d4- | d4 c4 | d4 d4 | z8 | z8 | A8 | c8- | c4 B4 | c4 d4 | e8 | d4 ^c4 | d4 d4 | e4 g4- | %74
w: co- me|_ cor-|te- se|||di|me|_ lo|fe- ci|de-|gno, ma|hor ne|son do-|
 g4 f4- | f4 e4 | d4 f4- | f4 e4- | e4 d4 | e6 f2 | g8 | f4 e4- | e2 d2 d4- | d4 c4 | d4 c4 | %85
w: * len-|* te'a|me, do-|* len-|* te'a|me _|_|pri- va-|||ta, ma|
 d4 d4 | e4 g4- | g4 f4- | f4 e4 | d4 f4- | f4 e4- | e4 d4 | e6 f2 | g8 | f4 e4- | e2 d2 d4- | %96
w: hor ne|son do-|* len-|* te'a|me, do-|* len-|* te'a|me _|_|pri- va|_ _ _|
 d4 c2 B2 |"^#" c8 | d8 |] %99
w: ||ta.|
V:4
 z8 | z8 | z8 | A8 | c6 B2 | c4 A4 | G4 D2 D2 | A6 E2 | A4 G4 | C4 C4 | z8 | z8 | C4 E2 F2 | %13
w: |||Gia|fu chi|m'heb- be|ca- ra, gia|fu chi|m'heb- ne|ca- ra|||e vo- len-|
 G4 G4 | c6 c2 | A4 G4 | A6 A2 | F4 E2 C2 | G4 G4 | z8 | z8 | z4 d4 | c4 A4 | _B8 |"^#" A8 | %25
w: tie- ri|gio- vi-|net- ta,|gio- vi-|net- ta mi|pre- se|||ne|le sue|brac-|cia|
 z4 A4 |"^b" B6 A2 | G4 F4 | C4 G4 | A8 | D8 | z4 G4- | G2 G2 G4 | F4 A4 | G8- | G8 | z8 | z4 c4- | %38
w: e|den- *|* tr'a|suoi pen-|sie-|ri|e|_ de miei|oc- ch|si|_||tut-|
 c2 c2 A4 | _B8 | A8 | D8 | A8 | A8 | z8 |"^b" A2 B2 c4 | B2 c2 d4 | G4 A4- | A4 A4 | d4 d4 | %50
w: * to s'ac-|ce-|se,|ch'el|tem-|po||che leg- gie-|ri s'en vo-|la tut-|* t'in|vag- heg-|
 c2 d2 e2 d2 | c2 B2 A2 G2 | F8- | F4 F4 | G8 | A8 | D8- | D8 | z8 | z4 A4 |"^b" B6 A2 | G4 F4 | %62
w: giar _ _ _|_ _ _ _||* mi|spe-||se|_||et|io co-|me cor-|
 E8 | D4 D4 | A6 A2 | A4 G4 | F8 | C8 | z4 G4 | c4 B4 | c8 | G4 A4 | d4 G4 | c8 | z8 | z8 | %76
w: te-|se di|mi lo|fe- ci|de-|gno,|lo|fe- ci|ge-|gno, ma|hor ne|son|||
 z4 d4- | d4 c4- | c4 _B4 | A8 | G8 | A8 |"^b" B8 | A8 | z4 A4 | d4 G4 | c8 | z8 | z8 | z4 d4- | %90
w: do-|* len-|* te'a|me|pri-|va-||ta,|ma|hor ne|son|||do-|
 d4 c4- | c4 _B4 | A8 | G8 | A4 A4 | _B4 B4 | A8- | A8 | D8 |] %99
w: * len-|* te'a|me,|do-|len- te'a|me pri-|va-||ta.|

